packages/core/src/svgs/wallets/branded/portal.svg

<svg width="24" height="24" viewBox="0 0 24 24" fill="none" xmlns="http://www.w3.org/2000/svg">
<path fill-rule="evenodd" clip-rule="evenodd" d="M20.4243 15.804C22.5252 13.7031 22.5252 10.2967 20.4243 8.19576C20.4243 8.19576 14.8102 2.39931 14.0458 2.07018C14.0101 2.05477 14.013 2.04185 14.0154 2.03147C14.0202 2.01063 14.0226 2 13.7054 2C13.23 2 12.8446 2.38539 12.8446 2.86078V5.10264C12.8446 5.57802 13.23 5.96341 13.7054 5.96341H14.6379C16.6187 5.96341 18.2245 7.32917 18.2245 9.31V14.6898C18.2245 16.6706 16.6187 18.0364 14.6379 18.0364H13.7054C13.23 18.0364 12.8446 18.4217 12.8446 18.8971V21.139C12.8446 21.256 12.8685 21.3719 12.9148 21.4794C13.1028 21.916 13.6092 22.1176 14.0458 21.9296C14.8102 21.6005 20.4243 15.804 20.4243 15.804ZM11.1554 5.10285V2.861C11.1554 2.74393 11.1315 2.62809 11.0852 2.52057C10.8972 2.08394 10.3908 1.88239 9.95418 2.0704C9.18981 2.39953 3.57572 8.19598 3.57572 8.19598C1.47476 10.2969 1.47476 13.7032 3.57572 15.8042C3.57572 15.8042 9.18981 21.6007 9.95418 21.9298C10.0617 21.9761 10.1775 22 10.2946 22C10.77 22 11.1554 21.6146 11.1554 21.1392V18.8974C11.1554 18.422 10.77 18.0366 10.2946 18.0366H9.36206C7.38124 18.0366 5.77552 16.6708 5.77552 14.6901V9.31018C5.77552 7.32938 7.38124 5.96363 9.36206 5.96363H10.2946C10.77 5.96363 11.1554 5.57825 11.1554 5.10285Z" fill="#3E71F8"/>
</svg>

<svg xmlns="http://www.w3.org/2000/svg" width="24" height="24" fill="none" viewBox="0 0 24 24">
    <path fill="#3E71F8" fill-rule="evenodd" d="M20.424 15.804a5.38 5.38 0 0 0 0-7.608S14.81 2.399 14.046 2.07c-.036-.015-.033-.028-.03-.039.004-.02.007-.031-.31-.031a.86.86 0 0 0-.861.86v2.243c0 .475.385.86.86.86h.933c1.98 0 3.586 1.366 3.586 3.347v5.38c0 1.98-1.605 3.346-3.586 3.346h-.933a.86.86 0 0 0-.86.861v2.242a.86.86 0 0 0 1.2.79c.765-.328 6.38-6.125 6.38-6.125m-9.27-10.701V2.86a.86.86 0 0 0-1.2-.79c-.765.329-6.38 6.125-6.38 6.125a5.38 5.38 0 0 0 0 7.608s5.615 5.797 6.38 6.126a.86.86 0 0 0 1.2-.79v-2.243a.86.86 0 0 0-.86-.86h-.933c-1.98 0-3.586-1.366-3.586-3.347V9.31c0-1.98 1.605-3.346 3.586-3.346h.933a.86.86 0 0 0 .86-.861" clip-rule="evenodd"/>
</svg>
